X:575
T:Reel 575
M:4/4
K:Dmaj
L:1/8
d>c (3dcB A>F (3FEF |Beee dcBA|B>e (3cde d>c (3Bcd || (3Bcd cd e (3Bcd :||2 (3Bcd ce d2d2|B>E (3EDE B>E (3EEE |B>E (3EEE B>E (3EEE |B>E (3EEE B>E (3EEE |B>E (3EEE B>E (3EEE :|
